packages/foundations/assets/icons/functional/images/human/toys_16.svg

<svg width="16" height="16" viewBox="0 0 16 16" fill="none" xmlns="http://www.w3.org/2000/svg">
<g clip-path="url(#clip0_185_1222)">
<path fill-rule="evenodd" clip-rule="evenodd" d="M11.2002 1.59998C12.9675 1.59998 14.4002 3.03266 14.4002 4.79998C14.4002 5.58435 14.1617 6.31073 13.5114 7.01198C13.5616 7.27194 13.5912 7.60127 13.6002 7.99998C13.6002 9.61032 12.9157 11.1122 11.7411 12.1672C11.4124 12.4625 10.9066 12.4353 10.6114 12.1066C10.3162 11.7779 10.3433 11.2721 10.672 10.9769C11.5122 10.2222 12.0002 9.15137 12.0002 7.99998C12.0002 7.70926 11.9753 7.26108 11.7112 6.41337C11.8463 6.31943 11.9933 6.21037 12.1522 6.08619C12.5574 5.78551 12.8002 5.3137 12.8002 4.79998C12.8002 3.91632 12.0838 3.21556 11.2002 3.19998C10.5703 3.18887 10.0065 3.55122 9.50882 4.28703C8.924 4.09566 8.42114 3.99998 8.00023 3.99998C7.36887 3.99998 7.05952 4.11364 6.54747 4.28703C6.06508 3.48212 5.42378 3.19998 4.90023 3.19998C3.96135 3.19998 3.20023 3.96109 3.20023 4.89998C3.20023 5.3759 3.39617 5.81802 3.73285 6.13508C3.93422 6.30275 4.10241 6.43958 4.2374 6.54555C4.05492 7.23358 3.97614 7.7278 4.00107 8.02821C4.13145 8.0096 4.26472 7.99998 4.40023 7.99998C5.27982 7.99998 6.06467 8.40555 6.57799 9.03989C6.67227 9.00127 6.77996 8.98712 6.89426 9.00672L7.05952 9.04941C7.27823 9.09928 7.37733 9.02678 7.39665 8.86483L7.40631 8.70414C7.49416 8.03192 8.50631 8.03192 8.59416 8.70414L8.60396 8.86567C8.62138 9.00977 8.70665 9.0739 8.84704 9.0739C8.88274 9.0739 8.95538 9.05418 9.06495 9.01474C9.63639 8.87357 10.0645 9.59464 9.61942 10.0293C9.20598 10.433 8.79917 10.4874 8.33382 10.3264C8.20166 10.2755 8.09046 10.2334 8.00023 10.2C7.62553 10.3703 7.3046 10.4108 7.17231 10.4104C7.22984 10.7679 7.20023 11.0827 7.09595 11.5597L8.00765 12.0657C8.13066 12.0231 8.26274 12 8.40023 12C9.06297 12 9.60023 12.5372 9.60023 13.2C9.60023 13.8627 9.06297 14.4 8.40023 14.4C7.82893 14.4 7.35088 14.0007 7.22984 13.4661L6.23631 12.914C5.74474 13.3413 5.1027 13.6 4.40023 13.6C2.85384 13.6 1.60023 12.3464 1.60023 10.8C1.60023 10.0088 1.92838 9.29426 2.456 8.78504C2.41864 8.52707 2.40023 8.2646 2.40023 7.99998C2.40023 7.72675 2.4175 7.43036 2.46903 7.12878C1.9756 6.60016 1.58374 5.7511 1.60023 4.89998C1.60023 3.07744 3.07769 1.59998 4.90023 1.59998C5.7245 1.59998 6.46522 1.87947 7.12983 2.46798C7.50256 2.42143 7.69646 2.39998 8.00023 2.39998C8.30401 2.39998 8.55787 2.42287 8.98743 2.48798C9.50322 1.94534 10.4267 1.59998 11.2002 1.59998ZM6.00023 5.99998C6.44206 5.99998 6.80023 6.35815 6.80023 6.79998C6.80023 7.2418 6.44206 7.59998 6.00023 7.59998C5.55841 7.59998 5.20023 7.2418 5.20023 6.79998C5.20023 6.35815 5.55841 5.99998 6.00023 5.99998ZM10.0002 5.99998C10.4421 5.99998 10.8002 6.35815 10.8002 6.79998C10.8002 7.2418 10.4421 7.59998 10.0002 7.59998C9.55841 7.59998 9.20023 7.2418 9.20023 6.79998C9.20023 6.35815 9.55841 5.99998 10.0002 5.99998ZM4.40023 9.59998C3.73749 9.59998 3.20023 10.1372 3.20023 10.8C3.20023 11.4627 3.73749 12 4.40023 12C5.06298 12 5.60023 11.4627 5.60023 10.8C5.60023 10.1372 5.06298 9.59998 4.40023 9.59998Z" fill="#1A1C1F"/>
</g>
<defs>
<clipPath id="clip0_185_1222">
<rect width="16" height="16" fill="white"/>
</clipPath>
</defs>
</svg>

<svg xmlns="http://www.w3.org/2000/svg" width="16" height="16" fill="none"><g clip-path="url(#a)"><path fill="#1A1C1F" fill-rule="evenodd" d="M11.2 1.6a3.2 3.2 0 0 1 3.2 3.2c0 .784-.238 1.51-.889 2.212q.075.39.09.988c0 1.61-.685 3.112-1.86 4.167a.8.8 0 1 1-1.069-1.19A3.99 3.99 0 0 0 12 8c0-.29-.025-.739-.289-1.587q.203-.141.441-.327c.405-.3.648-.772.648-1.286 0-.884-.716-1.584-1.6-1.6q-.944-.017-1.691 1.087Q8.63 4 8 4c-.631 0-.94.114-1.453.287C6.065 3.482 5.424 3.2 4.9 3.2a1.7 1.7 0 0 0-1.167 2.935q.302.252.504.41-.272 1.033-.236 1.483.195-.028.4-.028c.879 0 1.664.406 2.177 1.04a.57.57 0 0 1 .316-.033l.166.042c.218.05.317-.022.337-.184l.01-.16c.087-.673 1.1-.673 1.187 0l.01.16c.017.145.103.209.243.209q.053 0 .218-.06c.571-.14 1 .58.554 1.015-.413.404-.82.458-1.285.297L8 10.2c-.374.17-.695.21-.828.21.058.358.028.673-.076 1.15l.912.506Q8.193 12 8.4 12a1.2 1.2 0 1 1-1.17 1.466l-.994-.552a2.8 2.8 0 0 1-3.78-4.129A5.5 5.5 0 0 1 2.4 8c0-.273.018-.57.069-.871C1.976 6.6 1.584 5.75 1.6 4.9a3.3 3.3 0 0 1 3.3-3.3c.824 0 1.565.28 2.23.868.373-.047.566-.068.87-.068s.558.023.987.088c.516-.543 1.44-.888 2.213-.888M6 6a.8.8 0 1 1 0 1.6A.8.8 0 0 1 6 6m4 0a.8.8 0 1 1 0 1.6.8.8 0 0 1 0-1.6M4.4 9.6a1.2 1.2 0 1 0 0 2.4 1.2 1.2 0 0 0 0-2.4" clip-rule="evenodd"/></g><defs><clipPath id="a"><path fill="#fff" d="M0 0h16v16H0z"/></clipPath></defs></svg>
